X: 30521
T: GARLAND OF LOVE
C:
%R: jig
B: Elias Howe "The Musician's Companion" Part 3 1844 p.52 #2
S: http://imslp.org/wiki/The_Musician's_Companion_(Howe,_Elias)
S: https://archive.org/stream/firstthirdpartof03howe/#page/66/mode/1up
Z: 2015 John Chambers <jc:trillian.mit.edu>
M: 6/8
L: 1/8
K: D
% - - - - - - - - - - - - - - - - - - - - - - - - -
A |\
AFA Add | fed dcB | AFA AdF | FEE E2A |\
AFA Add | f>ed afd | Bcd Adf | ede d2 :|
|: d/e/ |\
f>ed FAd | f>ed FAd | f>ed afd | cee A>Bc |\
ded BGd | AFd AFD | DFA dfa | ABc d2 :|
% - - - - - - - - - - - - - - - - - - - - - - - - -
